public/icon/friends.svg

<svg width="91" height="61" viewBox="0 0 91 61" fill="none" xmlns="http://www.w3.org/2000/svg">
<path d="M40.6387 59.183C41.9637 60.1103 43.6029 60.4733 45.1955 60.1921C46.7882 59.9109 48.2039 59.0085 49.1313 57.6835C49.2909 57.4565 49.4041 57.2002 49.4644 56.9293C49.5246 56.6584 49.5308 56.3783 49.4825 56.105C49.4341 55.8317 49.3323 55.5707 49.1828 55.3369C49.0333 55.1031 48.839 54.9011 48.6113 54.7426L43.7274 49.5974L54.8732 57.3984C55.2989 57.6976 55.7795 57.9097 56.2874 58.0227C56.7953 58.1357 57.3205 58.1473 57.8329 58.0567C58.3453 57.9662 58.8347 57.7754 59.2732 57.4953C59.7117 57.2152 60.0905 56.8512 60.388 56.4243C60.6861 55.9982 60.8974 55.5176 61.0098 55.0099C61.1222 54.5021 61.1335 53.9772 61.0431 53.4651C60.9526 52.953 60.7622 52.4638 60.4826 52.0253C60.2031 51.5868 59.8399 51.2076 59.4138 50.9095L49.9207 42.1845L64.1102 52.1186C64.536 52.4177 65.0165 52.6299 65.5245 52.7429C66.0324 52.8558 66.5576 52.8674 67.07 52.7769C67.5824 52.6864 68.0718 52.4956 68.5103 52.2155C68.9488 51.9353 69.3276 51.5713 69.625 51.1444C69.9232 50.7184 70.1345 50.2377 70.2469 49.73C70.3593 49.2223 70.3706 48.6974 70.2801 48.1853C70.1897 47.6732 69.9993 47.1839 69.7197 46.7454C69.4402 46.3069 69.077 45.9278 68.6509 45.6296L56.069 34.8772L71.5495 45.7141C71.9753 46.0133 72.4559 46.2254 72.9638 46.3384C73.4717 46.4514 73.9969 46.463 74.5093 46.3724C75.0217 46.2819 75.5111 46.0911 75.9496 45.811C76.3881 45.5309 76.7669 45.1669 77.0643 44.74C77.3625 44.3139 77.5738 43.8333 77.6862 43.3256C77.7986 42.8178 77.8099 42.2929 77.7195 41.7808C77.629 41.2687 77.4386 40.7795 77.159 40.341C76.8795 39.9025 76.5163 39.5233 76.0902 39.2252L9.76478 8.66278L0.612167 23.2378C-0.414763 24.8218 -0.134931 26.968 1.34079 28.2299L21.8952 45.8408C22.8324 46.6434 23.8065 47.401 24.8176 48.1085L40.6387 59.183Z" fill="#413160"/>
<path d="M75.945 36.5351L46.1086 15.0171L45.9529 14.8059L46.0928 14.5947L46.2327 14.4548L48.4872 15.6929C51.0162 17.3297 56.795 19.7479 61.1747 19.7479C64.171 19.7479 65.9661 18.6259 66.502 16.4295C66.6649 15.4586 66.4363 14.4627 65.8663 13.6601C65.2962 12.8574 64.4312 12.3135 63.4608 12.1475C60.8118 11.7521 58.285 10.768 56.0664 9.26736L54.6012 8.28267C52.9539 7.17126 51.0875 5.91202 49.7095 5.09892C47.9935 4.05879 46.1271 3.55457 43.9993 3.55457C40.842 3.55457 37.6345 4.66861 34.5352 5.7457L31.193 6.89671C29.7508 7.38266 28.2376 7.62446 26.7157 7.61213C22.6397 7.61213 18.6508 6.06513 14.7938 4.57094L14.4058 4.41782C13.612 4.11384 12.7372 4.09507 11.9311 4.36474C11.125 4.6344 10.4376 5.17574 9.98654 5.89618L0.833921 20.4765C0.367943 21.2031 0.179995 22.0735 0.304649 22.9277C0.429303 23.7818 0.858176 24.5622 1.51238 25.1254L22.0642 42.7389C22.9934 43.5336 23.9702 44.2912 24.9681 44.9882L41.2432 56.3821C41.8112 56.78 42.4521 57.0621 43.1291 57.2124C43.8062 57.3626 44.5062 57.378 45.1892 57.2576C45.8722 57.1372 46.5247 56.8835 47.1097 56.5108C47.6946 56.1382 48.2003 55.654 48.5981 55.0859C48.9181 54.6264 49.0433 54.0589 48.9463 53.5074C48.8494 52.9559 48.5382 52.4652 48.0806 52.1424L43.2417 48.7553C43.1152 48.6664 43.0085 48.5522 42.9284 48.4199C42.8482 48.2877 42.7963 48.1403 42.776 47.987C42.7557 47.8337 42.7673 47.6779 42.8102 47.5293C42.8531 47.3808 42.9263 47.2427 43.0252 47.1239C43.2043 46.909 43.4576 46.7693 43.7349 46.7326C44.0123 46.6959 44.2932 46.7649 44.522 46.9259L55.0263 54.2781C55.8293 54.8403 56.8229 55.0604 57.7883 54.8901C58.7537 54.7198 59.6119 54.173 60.1741 53.3699C60.7363 52.5668 60.9565 51.5733 60.7862 50.6079C60.6159 49.6425 60.0691 48.7843 59.266 48.2221L49.4349 41.3424C49.3084 41.2535 49.2018 41.1393 49.1216 41.007C49.0415 40.8748 48.9896 40.7274 48.9693 40.5741C48.9489 40.4208 48.9606 40.265 49.0035 40.1164C49.0463 39.9679 49.1195 39.8298 49.2184 39.711C49.3979 39.4966 49.6512 39.3573 49.9283 39.3206C50.2055 39.284 50.4863 39.3526 50.7153 39.513L64.2634 48.9982C64.661 49.2766 65.1096 49.4739 65.5835 49.579C66.0574 49.684 66.5473 49.6946 67.0254 49.6103C67.5034 49.526 67.9601 49.3483 68.3695 49.0875C68.7789 48.8266 69.1328 48.4877 69.4112 48.0901C69.6896 47.6924 69.8869 47.2439 69.992 46.7699C70.097 46.296 70.1076 45.8061 70.0233 45.3281C69.939 44.85 69.7613 44.3933 69.5005 43.9839C69.2396 43.5746 68.9007 43.2206 68.5031 42.9422L55.6519 33.948C55.5243 33.8599 55.4167 33.746 55.3358 33.6137C55.255 33.4813 55.2028 33.3335 55.1827 33.1798C55.1625 33.026 55.1748 32.8697 55.2188 32.7211C55.2628 32.5724 55.3375 32.4346 55.4381 32.3165C55.5984 32.1253 55.8246 32.0013 56.072 31.9691C56.3194 31.9368 56.5699 31.9986 56.7739 32.1423L71.7053 42.5938C72.1031 42.8721 72.5519 43.0694 73.0259 43.1744C73.5 43.2794 73.9901 43.2899 74.4682 43.2055C74.9464 43.121 75.4032 42.9432 75.8127 42.6822C76.2221 42.4212 76.5761 42.0821 76.8545 41.6843C77.1329 41.2865 77.3302 40.8377 77.4351 40.3637C77.5401 39.8896 77.5506 39.3995 77.4662 38.9214C77.3817 38.4432 77.2039 37.9864 76.9429 37.577C76.6819 37.1675 76.3428 36.8135 75.945 36.5351Z" fill="url(#paint0_linear_225_1425)"/>
<path d="M40.9234 52.8419C40.7386 53.5468 40.3769 54.1566 39.8965 54.6397L37.246 57.2691C36.7605 57.7602 36.1546 58.1152 35.4889 58.2987C34.8232 58.4821 34.1209 58.4876 33.4524 58.3145C32.7775 58.1388 32.161 57.7879 31.6652 57.2975C31.1694 56.807 30.8119 56.1943 30.629 55.5213C30.446 54.8483 30.444 54.139 30.6232 53.465C30.8023 52.791 31.1563 52.1763 31.6493 51.683L34.2998 49.0536C34.7853 48.5625 35.3912 48.2075 36.0569 48.024C36.7227 47.8406 37.4249 47.8351 38.0934 48.0082C39.109 48.275 39.9773 48.9337 40.5079 49.8399C41.0384 50.7461 41.1879 51.8257 40.9234 52.8419ZM13.088 39.8509L17.0558 35.8989C17.5095 35.4458 17.8464 34.8893 18.0375 34.2772C18.2286 33.6651 18.2682 33.0158 18.1529 32.3851C18.0376 31.7543 17.7708 31.161 17.3756 30.6561C16.9803 30.1512 16.4684 29.7498 15.8837 29.4865C15.1513 29.1571 14.3359 29.059 13.5462 29.2052C12.7566 29.3514 12.0304 29.7351 11.4645 30.3049L7.49669 34.2569C7.04309 34.7102 6.70636 35.2668 6.51546 35.879C6.32457 36.4913 6.2852 37.1407 6.40076 37.7714C6.51632 38.4022 6.78335 38.9955 7.17888 39.5003C7.57441 40.005 8.08661 40.4062 8.67145 40.6692C9.4036 40.9977 10.2184 41.0953 11.0074 40.9491C11.7964 40.8029 12.5222 40.4198 13.088 39.8509ZM26.8262 39.9881C27.2149 39.6252 27.5265 39.1878 27.7425 38.7018C27.9585 38.2159 28.0744 37.6914 28.0832 37.1597C28.0921 36.628 27.9938 36.1 27.7942 35.6071C27.5945 35.1142 27.2977 34.6666 26.9213 34.2909C26.5449 33.9153 26.0968 33.6192 25.6035 33.4205C25.1102 33.2219 24.582 33.1245 24.0503 33.1344C23.5186 33.1443 22.9944 33.2612 22.5089 33.478C22.0233 33.6949 21.5864 34.0074 21.2243 34.3968L13.2992 42.3113C12.9105 42.6742 12.5989 43.1116 12.3829 43.5976C12.167 44.0835 12.0511 44.608 12.0422 45.1397C12.0333 45.6714 12.1316 46.1994 12.3313 46.6923C12.5309 47.1852 12.8278 47.6328 13.2041 48.0085C13.5805 48.3842 14.0287 48.6802 14.5219 48.8789C15.0152 49.0776 15.5434 49.1749 16.0751 49.165C16.6068 49.1551 17.131 49.0382 17.6166 48.8214C18.1021 48.6045 18.539 48.292 18.9012 47.9026L26.8262 39.9881ZM32.766 47.9079C33.3005 47.3724 33.6703 46.6949 33.8317 45.9558C33.9932 45.2166 33.9395 44.4467 33.677 43.7371C33.4146 43.0275 32.9543 42.4079 32.3508 41.9517C31.7472 41.4955 31.0256 41.2218 30.2713 41.1629C29.7018 41.1199 29.1297 41.2016 28.5949 41.4022C28.0601 41.6028 27.5754 41.9175 27.1747 42.3245L21.8816 47.5911C21.3464 48.1265 20.9758 48.8042 20.8139 49.5437C20.652 50.2833 20.7055 51.0538 20.968 51.7639C21.2305 52.474 21.6911 53.094 22.2952 53.5503C22.8993 54.0067 23.6215 54.2803 24.3764 54.3388C25.5775 54.4338 26.6837 53.9665 27.473 53.1772L32.766 47.9079ZM76.47 36.9865L78.1252 35.5557L59.8754 6.91254L27.4835 12.1528C26.9684 12.2398 26.4754 12.4274 26.0327 12.7049C25.5901 12.9825 25.2064 13.3445 24.9037 13.7703C24.6009 14.1961 24.385 14.6774 24.2682 15.1866C24.1515 15.6959 24.1362 16.2232 24.2232 16.7383C25.9603 23.8529 40.0707 18.5678 46.2798 15.1517L76.47 36.9865Z" fill="#413160"/>
<path d="M40.9234 50.202C40.7386 50.9069 40.3769 51.5167 39.8965 51.9998L37.246 54.6292C36.7605 55.1203 36.1546 55.4753 35.4889 55.6588C34.8232 55.8422 34.1209 55.8477 33.4524 55.6746C32.7775 55.4989 32.161 55.148 31.6652 54.6575C31.1694 54.1671 30.8119 53.5544 30.629 52.8814C30.446 52.2084 30.444 51.4991 30.6232 50.8251C30.8023 50.1511 31.1563 49.5363 31.6493 49.0431L34.2998 46.4137C34.7853 45.9226 35.3912 45.5676 36.0569 45.3841C36.7227 45.2007 37.4249 45.1952 38.0934 45.3683C39.109 45.6351 39.9773 46.2938 40.5079 47.2C41.0384 48.1062 41.1879 49.1858 40.9234 50.202ZM13.088 37.2109L17.0558 33.259C17.5095 32.8059 17.8464 32.2493 18.0375 31.6373C18.2286 31.0252 18.2682 30.3759 18.1529 29.7451C18.0376 29.1144 17.7708 28.5211 17.3756 28.0162C16.9803 27.5113 16.4684 27.1099 15.8837 26.8466C15.1512 26.518 14.3359 26.4202 13.5464 26.5664C12.757 26.7126 12.0308 27.0958 11.4645 27.665L7.49669 31.6169C7.04309 32.0702 6.70636 32.6269 6.51546 33.2391C6.32457 33.8513 6.2852 34.5007 6.40076 35.1315C6.51632 35.7623 6.78335 36.3556 7.17888 36.8603C7.57441 37.3651 8.08661 37.7663 8.67145 38.0293C9.4036 38.3578 10.2184 38.4554 11.0074 38.3092C11.7964 38.163 12.5222 37.7799 13.088 37.2109ZM26.8262 37.3482C27.2149 36.9853 27.5265 36.5479 27.7425 36.0619C27.9585 35.576 28.0744 35.0515 28.0832 34.5198C28.0921 33.9881 27.9938 33.4601 27.7942 32.9672C27.5945 32.4743 27.2977 32.0267 26.9213 31.651C26.5449 31.2753 26.0968 30.9793 25.6035 30.7806C25.1102 30.5819 24.582 30.4846 24.0503 30.4945C23.5186 30.5044 22.9944 30.6213 22.5089 30.8381C22.0233 31.055 21.5864 31.3675 21.2243 31.7569L13.2992 39.6714C12.9105 40.0342 12.5989 40.4717 12.3829 40.9577C12.167 41.4436 12.0511 41.9681 12.0422 42.4998C12.0333 43.0315 12.1316 43.5595 12.3313 44.0524C12.5309 44.5453 12.8278 44.9929 13.2041 45.3686C13.5805 45.7442 14.0287 46.0402 14.5219 46.2389C15.0152 46.4376 15.5434 46.535 16.0751 46.5251C16.6068 46.5152 17.131 46.3983 17.6166 46.1814C18.1021 45.9646 18.539 45.6521 18.9012 45.2627L26.8262 37.3482ZM32.766 45.268C33.3005 44.7324 33.6703 44.055 33.8317 43.3159C33.9932 42.5767 33.9395 41.8068 33.677 41.0972C33.4146 40.3876 32.9543 39.768 32.3508 39.3118C31.7472 38.8556 31.0256 38.5819 30.2713 38.523C29.7018 38.48 29.1297 38.5616 28.5949 38.7622C28.0601 38.9628 27.5754 39.2776 27.1747 39.6846L21.8816 44.9512C21.3464 45.4866 20.9758 46.1643 20.8139 46.9038C20.652 47.6434 20.7055 48.4139 20.968 49.124C21.2305 49.8341 21.6911 50.454 22.2952 50.9104C22.8993 51.3668 23.6215 51.6404 24.3764 51.6988C25.5775 51.7939 26.6837 51.3266 27.473 50.5373L32.766 45.268ZM89.6749 25.5847C90.3738 24.9806 90.8307 24.1441 90.9612 23.2295C91.0917 22.3149 90.8871 21.384 90.385 20.6085L90.3771 20.5953L81.2245 3.38033C80.7412 2.6081 80.0045 2.02785 79.1405 1.7389C78.2766 1.44995 77.3391 1.47027 76.4884 1.79637C71.2297 3.83176 65.4694 6.17073 59.878 4.26998L56.9794 3.27473C51.8368 1.49278 46.2455 -0.595397 41.1399 2.49859C39.3051 3.57832 36.5517 5.48963 34.775 6.66967C32.5801 8.1356 30.0917 9.105 27.4835 9.51023C26.9676 9.59559 26.4736 9.78217 26.0301 10.0592C25.5866 10.3363 25.2022 10.6983 24.8992 11.1246C24.5961 11.5508 24.3804 12.0327 24.2644 12.5426C24.1484 13.0526 24.1344 13.5804 24.2232 14.0958C25.8415 20.7273 38.2148 16.4928 44.915 13.1216C45.3332 12.9117 45.801 12.8206 46.2675 12.8583C46.734 12.896 47.1811 13.061 47.5602 13.3355L78.141 35.5531L89.6749 25.5847Z" fill="url(#paint1_linear_225_1425)"/>
<defs>
<linearGradient id="paint0_linear_225_1425" x1="0.26709" y1="30.4461" x2="77.5225" y2="30.4461" gradientUnits="userSpaceOnUse">
<stop stop-color="#88709F"/>
<stop offset="0.5" stop-color="#836BAF"/>
<stop offset="1" stop-color="#978262"/>
</linearGradient>
<linearGradient id="paint1_linear_225_1425" x1="6.33594" y1="28.3575" x2="90.9996" y2="28.3575" gradientUnits="userSpaceOnUse">
<stop stop-color="#897298"/>
<stop offset="0.5" stop-color="#836BAF"/>
<stop offset="1" stop-color="#978262"/>
</linearGradient>
</defs>
</svg>

<svg xmlns="http://www.w3.org/2000/svg" width="91" height="61" fill="none"><path fill="#413160" d="M40.639 59.183a6.098 6.098 0 0 0 8.492-1.5 2.107 2.107 0 0 0-.52-2.94l-4.884-5.146 11.146 7.801a3.952 3.952 0 0 0 5.515-.974 3.961 3.961 0 0 0-.974-5.514l-9.493-8.725 14.19 9.934a3.954 3.954 0 0 0 6.136-2.389 3.959 3.959 0 0 0-1.596-4.1L56.069 34.877l15.48 10.837a3.953 3.953 0 0 0 6.137-2.388 3.961 3.961 0 0 0-1.596-4.1L9.765 8.662.612 23.238a3.836 3.836 0 0 0 .729 4.992l20.554 17.61c.937.803 1.912 1.561 2.923 2.268l15.82 11.075Z"/><path fill="url(#a)" d="M75.945 36.535 46.109 15.017l-.156-.211.14-.211.14-.14 2.254 1.238c2.53 1.637 8.308 4.055 12.688 4.055 2.996 0 4.791-1.122 5.327-3.319a3.72 3.72 0 0 0-3.041-4.281 17.92 17.92 0 0 1-7.395-2.88l-1.465-.985c-1.647-1.112-3.514-2.371-4.892-3.184-1.716-1.04-3.582-1.544-5.71-1.544-3.157 0-6.364 1.114-9.464 2.19l-3.342 1.152a13.675 13.675 0 0 1-4.477.715c-4.076 0-8.065-1.547-11.922-3.041l-.388-.153a3.667 3.667 0 0 0-4.42 1.478L.835 20.476a3.582 3.582 0 0 0 .678 4.65l20.552 17.613c.93.795 1.906 1.552 2.904 2.25l16.275 11.393a5.282 5.282 0 0 0 7.355-1.296 2.12 2.12 0 0 0-.517-2.944l-4.84-3.387a1.117 1.117 0 0 1 1.281-1.83l10.504 7.353a3.696 3.696 0 0 0 4.24-6.056l-9.831-6.88a1.118 1.118 0 0 1 .493-2.021c.278-.037.558.032.787.192l13.548 9.485a3.697 3.697 0 1 0 4.24-6.056l-12.851-8.994a1.11 1.11 0 0 1-.214-1.632.995.995 0 0 1 1.336-.174l14.931 10.452a3.7 3.7 0 0 0 5.15-.91 3.696 3.696 0 0 0-.91-5.149Z"/><path fill="#413160" d="M40.923 52.842a3.964 3.964 0 0 1-1.026 1.798l-2.651 2.63a3.945 3.945 0 0 1-6.617-1.749 3.96 3.96 0 0 1 1.02-3.838l2.65-2.63a3.945 3.945 0 0 1 3.794-1.045 3.965 3.965 0 0 1 2.83 4.834ZM13.088 39.85l3.968-3.952a3.96 3.96 0 0 0-1.172-6.413 3.947 3.947 0 0 0-4.42.819l-3.967 3.952a3.96 3.96 0 0 0 1.174 6.412 3.949 3.949 0 0 0 4.417-.818Zm13.738.137a3.96 3.96 0 1 0-5.602-5.591L13.3 42.31a3.96 3.96 0 1 0 5.602 5.592l7.925-7.915Zm5.94 7.92a3.959 3.959 0 0 0-2.495-6.745 3.93 3.93 0 0 0-3.096 1.162l-5.293 5.266a3.96 3.96 0 0 0 2.494 6.748c1.201.095 2.308-.372 3.097-1.162l5.293-5.27ZM76.47 36.986l1.655-1.43-18.25-28.643-32.392 5.24a3.98 3.98 0 0 0-3.26 4.585c1.737 7.115 15.848 1.83 22.057-1.586l30.19 21.835Z"/><path fill="url(#b)" d="M40.923 50.202A3.964 3.964 0 0 1 39.897 52l-2.651 2.63a3.945 3.945 0 0 1-6.617-1.749 3.96 3.96 0 0 1 1.02-3.838l2.65-2.63a3.945 3.945 0 0 1 3.794-1.045 3.965 3.965 0 0 1 2.83 4.834ZM13.088 37.211l3.968-3.952a3.96 3.96 0 0 0-1.172-6.412 3.952 3.952 0 0 0-4.42.818l-3.967 3.952a3.96 3.96 0 0 0 1.174 6.412 3.949 3.949 0 0 0 4.417-.818Zm13.738.137a3.96 3.96 0 1 0-5.602-5.591L13.3 39.67a3.959 3.959 0 1 0 5.602 5.592l7.925-7.915Zm5.94 7.92a3.96 3.96 0 0 0-2.495-6.745 3.93 3.93 0 0 0-3.096 1.162l-5.293 5.266a3.96 3.96 0 0 0 2.494 6.748c1.201.095 2.308-.372 3.097-1.162l5.293-5.269Zm56.909-19.683a3.828 3.828 0 0 0 .71-4.977l-.008-.013L81.225 3.38a3.928 3.928 0 0 0-4.737-1.584C71.23 3.832 65.47 6.171 59.878 4.27l-2.899-.995c-5.142-1.782-10.733-3.87-15.84-.776-1.834 1.08-4.587 2.99-6.364 4.17a18.144 18.144 0 0 1-7.291 2.841 3.965 3.965 0 0 0-3.26 4.586c1.617 6.631 13.99 2.397 20.691-.974a2.556 2.556 0 0 1 2.645.213l30.581 22.218 11.534-9.968Z"/><defs><linearGradient id="a" x1=".267" x2="77.522" y1="30.446" y2="30.446" gradientUnits="userSpaceOnUse"><stop stop-color="#88709F"/><stop offset=".5" stop-color="#836BAF"/><stop offset="1" stop-color="#978262"/></linearGradient><linearGradient id="b" x1="6.336" x2="91" y1="28.358" y2="28.358" gradientUnits="userSpaceOnUse"><stop stop-color="#897298"/><stop offset=".5" stop-color="#836BAF"/><stop offset="1" stop-color="#978262"/></linearGradient></defs></svg>
